packages/assets/static/images/icons/building.svg

<svg width="25" height="24" viewBox="0 0 25 24" xmlns="http://www.w3.org/2000/svg">
<path d="M23.9972 18.589C23.9972 18.1019 23.6981 17.6876 23.2783 17.5198V13.6373C23.6849 13.4628 23.9708 13.0533 23.9708 12.5768C23.9708 11.941 23.4642 11.4261 22.8387 11.4261H20.8463V9.90339C20.8463 9.26765 20.3398 8.75273 19.7143 8.75273H19.3398C18.8596 5.57593 16.388 3.05789 13.2655 2.56119V1.15067C13.2655 0.514923 12.7589 0 12.1335 0C11.508 0 11.0015 0.514923 11.0015 1.15067V2.56119C7.87894 3.05789 5.40733 5.57593 4.92716 8.75273H4.50737C3.88192 8.75273 3.37534 9.26765 3.37534 9.90339V11.4261H1.13203C0.506584 11.4261 0 11.941 0 12.5768C0 13.0955 0.337723 13.5337 0.800912 13.6776V17.4949C0.344326 17.6435 0.013207 18.0779 0.013207 18.5909V22.8493C0.013207 23.4851 0.519791 24 1.14524 24H22.868C23.168 24 23.4566 23.8782 23.6689 23.6625C23.8811 23.4467 24 23.1533 24 22.8484L23.9962 18.59L23.9972 18.589ZM18.2248 17.4393V13.7265H21.0143V17.4393H18.2248ZM5.85449 13.7265V17.4393H3.06497V13.7265H5.85449ZM8.11855 13.7265H10.9081V17.4393H8.11855V13.7265ZM13.1712 13.7265H15.9607V17.4393H13.1712V13.7265ZM12.1344 4.77238C14.524 4.77238 16.5286 6.47729 17.0361 8.75177H7.23368C7.74121 6.47633 9.7449 4.77238 12.1354 4.77238H12.1344ZM5.6394 11.0531H18.5823V11.4251H5.6394V11.0531ZM2.27727 21.6977V19.7406H21.7341L21.7359 21.6977H2.27727Z"/>
</svg>

<svg viewBox="0 0 25 24" xmlns="http://www.w3.org/2000/svg" aria-hidden="true" fill="currentColor" height="24px" width="24px"><path d="M23.997 18.589c0-.487-.299-.901-.719-1.07v-3.882c.407-.174.693-.584.693-1.06a1.14 1.14 0 0 0-1.132-1.15h-1.993V9.902a1.14 1.14 0 0 0-1.132-1.15h-.374c-.48-3.177-2.952-5.695-6.074-6.192V1.15c0-.635-.507-1.15-1.133-1.15a1.14 1.14 0 0 0-1.131 1.15v1.411c-3.123.497-5.595 3.015-6.075 6.192h-.42c-.625 0-1.132.515-1.132 1.15v1.523H1.132c-.625 0-1.132.515-1.132 1.15 0 .52.338.958.8 1.102v3.817a1.15 1.15 0 0 0-.787 1.096v4.258C.013 23.485.52 24 1.145 24h21.723c.3 0 .589-.122.8-.337.213-.216.332-.51.332-.815l-.004-4.258zm-5.772-1.15v-3.713h2.79v3.713zm-12.37-3.713v3.713h-2.79v-3.713zm2.264 0h2.79v3.713h-2.79zm5.052 0h2.79v3.713h-2.79zm-1.037-8.954c2.39 0 4.395 1.705 4.902 3.98H7.234c.507-2.276 2.51-3.98 4.901-3.98M5.64 11.053h12.943v.372H5.64zM2.277 21.698V19.74h19.457l.002 1.957z"/></svg>
